X:888
T:Reel 888
L:1/8
M: 4/4
K: G Major
ge|dBA2G2BG|AGBDDEGA|BDG2DEGA|Bdgef2ge|dBB2AGEG|D2BDGABG|A2DEGABe|dBABG2:||:Bd|eaagefge|dBB2AGEG|D3EGABd|egdBA2Bd|eaa2bage|dBB2AGEG|D3EG2GA|Bdefg2:|.abc